X:74
T:Lass of Richmond Hill,The. JGi.074
O:Tealby,Lincolnshire
M:2/4
L:1/8
Q:1/4=120
S:Joshua Gibbons MS,1823,Tealby,Lincs.
R:Air
Z:VMP/R.Greig, 2009
K:D
A|(Ad).d.d|(ce) eg|fd Be|(d2c) A|
(Ad).d.d|(ce) ed|cA B^G|A3|
|d|(cA)(Ad)|(cA)(Ad)|Begf|(f2e) A|
(B/c/).d/.B/ (c/d/).e/.c/|(d/e/).f/.d/ (e/f/).g/.f/|(g/f/).e/.d/ Ac|d3||
A/A/|(Ad) (df)|(da) (fd)|(Ae) (eg)|
(eg) (ec)|f>e dc|(e/d/).c/.B/ Ad|cd (f/e/).d/.c/|d3|]

